assets/svgs/applover.svg

<svg height="97.239" viewBox="0 0 97.239 97.239" width="97.239" xmlns="http://www.w3.org/2000/svg" xmlns:xlink="http://www.w3.org/1999/xlink"><clipPath id="a"><path d="m0 0h97.239v97.239h-97.239z"/></clipPath><g clip-path="url(#a)" fill="#fff"><path d="m0 0h16.774v16.774h-16.774z" transform="translate(0 20.189)"/><path d="m0 0h16.774v16.774h-16.774z" transform="translate(20.185)"/><path d="m0 0h16.774v16.774h-16.774z" transform="translate(60.276)"/><path d="m0 0h16.774v16.774h-16.774z" transform="translate(20.185 60.559)"/><path d="m0 0h16.774v16.774h-16.774z" transform="translate(40.374 60.559)"/><path d="m0 0h16.774v16.774h-16.774z" transform="translate(40.374 80.462)"/><path d="m0 0h16.774v16.774h-16.774z" transform="translate(60.276 60.559)"/><path d="m0 0h16.774v16.774h-16.774z" transform="translate(80.462 20.189)"/><path d="m59.23 59.23v16.777h2.277v-5.688h11.655v5.688h2.846v-16.777zm13.932 8.52h-11.655v-6.243h11.655z" transform="translate(-39.045 -39.045)"/><path d="m118.47 59.23v16.777h2.273v-5.688h14.5v-11.089zm13.93 8.52h-11.657v-6.243h11.657z" transform="translate(-78.096 -39.045)"/><path d="m176.87 59.23v16.777h2.273v-5.97h14.5v-10.807zm13.93 8.52h-11.657v-6.243h11.657z" transform="translate(-116.594 -39.045)"/><path d="m0 118.47v16.774h16.774v-2.844h-14.501v-13.93z" transform="translate(0 -78.096)"/><path d="m59.23 135.244h16.491v-16.774h-16.491zm13.932-2.844h-11.655v-11.364h11.655z" transform="translate(-39.045 -78.096)"/><path d="m126.567 131.833-6.942-13.363h-1.155v4.55l6.363 12.224h3.759l6.652-13.08v-3.694h-1.444l-6.942 13.363z" transform="translate(-78.096 -78.096)"/><path d="m176.87 135.244h16.774v-2.844h-14.215v-4.832h14.215v-2.558h-14.215v-3.98h14.215v-2.56h-16.774z" transform="translate(-116.594 -78.096)"/><path d="m238.377 120.46h11.662v6.254h-11.656zm-2.277-1.99v16.774h2.277v-6.254h7.961l3.7 6.254h2.846l-3.7-6.254h3.7v-10.52z" transform="translate(-155.638 -78.096)"/></g></svg>

<svg xmlns="http://www.w3.org/2000/svg" xmlns:xlink="http://www.w3.org/1999/xlink" width="97.239" height="97.239" viewBox="0 0 97.239 97.239"><defs><style>.a{fill:none;}.b{clip-path:url(#a);}.c{fill:#fff;}</style><clipPath id="a"><rect class="a" width="97.239" height="97.239"/></clipPath></defs><g class="b"><rect class="c" width="16.774" height="16.774" transform="translate(0 20.189)"/><rect class="c" width="16.774" height="16.774" transform="translate(20.185)"/><rect class="c" width="16.774" height="16.774" transform="translate(60.276)"/><rect class="c" width="16.774" height="16.774" transform="translate(20.185 60.559)"/><rect class="c" width="16.774" height="16.774" transform="translate(40.374 60.559)"/><rect class="c" width="16.774" height="16.774" transform="translate(40.374 80.462)"/><rect class="c" width="16.774" height="16.774" transform="translate(60.276 60.559)"/><rect class="c" width="16.774" height="16.774" transform="translate(80.462 20.189)"/><path class="c" d="M59.23,59.23V76.007h2.277V70.319H73.162v5.688h2.846V59.23Zm13.932,8.52H61.507V61.507H73.162Z" transform="translate(-39.045 -39.045)"/><path class="c" d="M118.47,59.23V76.007h2.273V70.319h14.5V59.23ZM132.4,67.75H120.743V61.507H132.4Z" transform="translate(-78.096 -39.045)"/><path class="c" d="M176.87,59.23V76.007h2.273V70.037h14.5V59.23ZM190.8,67.75H179.143V61.507H190.8Z" transform="translate(-116.594 -39.045)"/><path class="c" d="M0,118.47v16.774H16.774V132.4H2.273V118.47Z" transform="translate(0 -78.096)"/><path class="c" d="M59.23,135.244H75.721V118.47H59.23ZM73.162,132.4H61.507V121.036H73.162Z" transform="translate(-39.045 -78.096)"/><path class="c" d="M126.567,131.833l-6.942-13.363H118.47v4.55l6.363,12.224h3.759l6.652-13.08V118.47H133.8l-6.942,13.363Z" transform="translate(-78.096 -78.096)"/><path class="c" d="M176.87,135.244h16.774V132.4H179.429v-4.832h14.215V125.01H179.429v-3.98h14.215V118.47H176.87Z" transform="translate(-116.594 -78.096)"/><path class="c" d="M238.377,120.46h11.662v6.254H238.383Zm-2.277-1.99v16.774h2.277V128.99h7.961l3.7,6.254h2.846l-3.7-6.254h3.7V118.47Z" transform="translate(-155.638 -78.096)"/></g></svg>
